X:473
T:The Weasel
M:C
L:1/8
R:Reel
K:A
"A"AECE FECE|ceAB ce e/2e/2e|"D"fefg f2 ec|"Bm"BcAc "D"BcAF|
"A"E2 CE FECE|"A"ceAB ce e/2e/2e|"D"fefb "Bm"f2 ec|"E"BcAB "A"cA A2:|
|:"A"aece "Bm"fbfe|"A"cBce "D"f2 ce|"A"fbfe "F#m"cefe|"Bm"BcAc "E"BcAF|
"A"E2 CE "Bm"FECE|"A"ceAB "E"ce e/2e/2e|"D"fefb "Bm"f2 ec|"E"BcAB "A"cA A2:||

